X:179
T:Jim Ward's
T:Ciaran's Capers
Z:robin.beech@mcgill.ca
R:jig
S:Simon Granger
M:6/8
L:1/8
K:Amix
ed | c2A ABA |dcd e3 | Ace efg | BGB dcB | 
cBA ABA | dcd e3 | Ace dde | A3 A :: 
fg | agf gfe | fed ecA | def gfg | B2B Bfg |
agf gfe | fed ecA | Ace dde | A3 A :|
